assets/logos/white_logo/dataeast.svg

<?xml version="1.0" encoding="UTF-8" standalone="no"?>
<svg
   xmlns:dc="http://purl.org/dc/elements/1.1/"
   xmlns:cc="http://creativecommons.org/ns#"
   xmlns:rdf="http://www.w3.org/1999/02/22-rdf-syntax-ns#"
   xmlns:svg="http://www.w3.org/2000/svg"
   xmlns="http://www.w3.org/2000/svg"
   xmlns:sodipodi="http://sodipodi.sourceforge.net/DTD/sodipodi-0.dtd"
   xmlns:inkscape="http://www.inkscape.org/namespaces/inkscape"
   width="364"
   height="158.74318"
   viewBox="0 0 364 158.74318"
   fill="none"
   version="1.1"
   id="svg10"
   sodipodi:docname="dataeast.svg"
   inkscape:version="1.0.1 (1.0.1+r73)">
  <metadata
     id="metadata16">
    <rdf:RDF>
      <cc:Work
         rdf:about="">
        <dc:format>image/svg+xml</dc:format>
        <dc:type
           rdf:resource="http://purl.org/dc/dcmitype/StillImage" />
        <dc:title></dc:title>
      </cc:Work>
    </rdf:RDF>
  </metadata>
  <defs
     id="defs14" />
  <sodipodi:namedview
     pagecolor="#9a9a9a"
     bordercolor="#666666"
     borderopacity="1"
     objecttolerance="10"
     gridtolerance="10"
     guidetolerance="10"
     inkscape:pageopacity="0"
     inkscape:pageshadow="2"
     inkscape:window-width="1366"
     inkscape:window-height="740"
     id="namedview12"
     showgrid="false"
     inkscape:pagecheckerboard="false"
     inkscape:zoom="2.1953098"
     inkscape:cx="190.14434"
     inkscape:cy="92.550739"
     inkscape:window-x="0"
     inkscape:window-y="0"
     inkscape:window-maximized="1"
     inkscape:current-layer="svg10" />
  <path
     d="m 7.84564,158.719 c 1.15914,-0.001 2.30396,-0.256 3.35486,-0.745 1.0333,-0.456 1.9502,-1.14 2.682,-2.001 v 0 l -1.9982,-2.002 c -0.4904,0.59 -1.0995,1.07 -1.7877,1.41 -0.6751,0.327 -1.41628,0.494 -2.16636,0.489 -0.63296,0.007 -1.26099,-0.112 -1.84773,-0.349 -0.58675,-0.238 -1.12055,-0.589 -1.57053,-1.035 -0.4333,-0.435 -0.77564,-0.953 -1.00715,-1.522 -0.2482,-0.605 -0.37318,-1.253 -0.36761,-1.906 -0.00676,-0.66 0.11467,-1.314 0.35754,-1.928 0.22671,-0.57 0.56267,-1.091 0.98902,-1.533 0.42756,-0.438 0.93894,-0.785 1.50367,-1.022 0.5885,-0.25 1.22189,-0.376 1.86121,-0.372 0.77102,-0.003 1.5321,0.173 2.22274,0.516 0.7139,0.359 1.3391,0.872 1.83,1.502 v 0 l 2.0617,-2.066 c -0.7249,-0.88 -1.6473,-1.577 -2.6921,-2.033 -1.0739,-0.497 -2.24239,-0.755 -3.42536,-0.757 -1.05661,-0.007 -2.10413,0.196 -3.08187,0.597 -0.92633,0.375 -1.77213,0.925 -2.49169,1.619 -0.71023,0.695 -1.275137,1.523 -1.661792,2.438 -0.400825,0.96 -0.60806038,1.989 -0.609788817,3.028 -0.001728433,1.04 0.202083817,2.07 0.599717817,3.03 0.382077,0.912 0.943423,1.738 1.650713,2.429 0.7199,0.693 1.56605,1.243 2.4927,1.618 0.98435,0.402 2.03878,0.605 3.10201,0.595 z m 39.85996,0.023 c 1.053,0.007 2.0971,-0.195 3.0707,-0.597 0.9223,-0.374 1.7614,-0.927 2.4691,-1.627 0.7076,-0.7 1.2698,-1.533 1.6542,-2.451 0.4025,-0.953 0.6098,-1.978 0.6098,-3.013 0,-1.035 -0.2073,-2.06 -0.6098,-3.013 -0.3843,-0.919 -0.9465,-1.752 -1.6542,-2.451 -0.7076,-0.7 -1.5468,-1.253 -2.4691,-1.627 -1.9631,-0.795 -4.1583,-0.795 -6.1214,0 -0.9223,0.374 -1.7614,0.927 -2.4691,1.627 -0.7077,0.699 -1.2698,1.532 -1.6542,2.451 -0.4022,0.953 -0.6094,1.978 -0.6094,3.013 0,1.035 0.2072,2.06 0.6094,3.013 0.3844,0.918 0.9466,1.751 1.6543,2.451 0.7076,0.7 1.5467,1.253 2.469,1.627 0.9674,0.4 2.0049,0.602 3.0517,0.596 z m 0,-2.833 c -0.6181,0.006 -1.2306,-0.115 -1.8002,-0.355 -0.5696,-0.24 -1.0842,-0.594 -1.5124,-1.039 -0.4223,-0.447 -0.7543,-0.972 -0.9779,-1.544 -0.477,-1.237 -0.477,-2.608 0,-3.845 0.2255,-0.568 0.5574,-1.089 0.9779,-1.533 0.4282,-0.445 0.9428,-0.799 1.5124,-1.039 0.5696,-0.24 1.1821,-0.361 1.8002,-0.355 0.6361,-0.005 1.2664,0.122 1.8511,0.372 0.5584,0.237 1.0628,0.585 1.4825,1.022 0.4206,0.444 0.7525,0.965 0.978,1.533 0.4767,1.237 0.4767,2.608 0,3.845 -0.2236,0.572 -0.5557,1.097 -0.978,1.544 -0.4198,0.437 -0.9242,0.785 -1.4825,1.022 -0.5845,0.25 -1.2144,0.376 -1.8501,0.371 z m 46.2331,2.599 v -2.725 H 85.8815 V 143.6 h -3.0476 v 14.906 z m 38.4523,0 v -2.725 h -8.058 V 143.6 h -3.049 v 14.906 z m 38.745,0 v -2.683 h -8.351 v -3.536 h 5.449 v -2.599 h -5.449 v -3.404 h 8.267 v -2.683 h -11.318 v 14.906 z m 33.824,0.212 c 1.159,-0.001 2.304,-0.256 3.354,-0.745 1.034,-0.456 1.951,-1.141 2.682,-2.001 v 0 l -1.999,-2.001 c -0.49,0.59 -1.099,1.07 -1.787,1.41 -0.675,0.327 -1.417,0.494 -2.167,0.489 -0.633,0.007 -1.26,-0.112 -1.847,-0.349 -0.587,-0.238 -1.12,-0.589 -1.57,-1.035 -0.433,-0.435 -0.776,-0.953 -1.007,-1.522 -0.249,-0.605 -0.374,-1.253 -0.369,-1.906 -0.006,-0.66 0.115,-1.314 0.359,-1.928 0.226,-0.57 0.561,-1.091 0.988,-1.533 0.427,-0.438 0.939,-0.786 1.503,-1.022 0.589,-0.25 1.222,-0.377 1.862,-0.372 0.773,-0.003 1.537,0.175 2.229,0.52 0.714,0.359 1.34,0.872 1.83,1.502 v 0 l 2.062,-2.066 c -0.725,-0.88 -1.647,-1.577 -2.692,-2.033 -1.074,-0.496 -2.242,-0.754 -3.424,-0.757 -1.057,-0.007 -2.104,0.196 -3.082,0.597 -0.927,0.375 -1.773,0.924 -2.493,1.618 -0.71,0.694 -1.276,1.523 -1.663,2.438 -0.4,0.96 -0.608,1.989 -0.609,3.028 -0.002,1.04 0.202,2.07 0.599,3.031 0.382,0.911 0.944,1.737 1.651,2.428 0.72,0.693 1.566,1.243 2.493,1.618 0.983,0.4 2.035,0.6 3.097,0.59 z m 40.344,-0.212 v -12.183 h 4.942 v -2.726 h -12.957 v 2.726 h 4.964 v 12.181 z m 34.938,0 v -14.906 h -3.05 v 14.906 z m 35.128,0.235 c 1.053,0.007 2.097,-0.195 3.071,-0.597 0.922,-0.374 1.761,-0.927 2.469,-1.627 0.708,-0.7 1.27,-1.533 1.654,-2.451 0.403,-0.953 0.61,-1.978 0.61,-3.013 0,-1.035 -0.207,-2.06 -0.61,-3.013 -0.384,-0.919 -0.946,-1.752 -1.654,-2.451 -0.707,-0.7 -1.547,-1.253 -2.469,-1.627 -1.963,-0.795 -4.157,-0.795 -6.12,0 -0.922,0.374 -1.761,0.927 -2.468,1.627 -0.708,0.7 -1.27,1.533 -1.655,2.451 -0.402,0.953 -0.61,1.978 -0.61,3.013 0,1.035 0.208,2.06 0.61,3.013 0.385,0.918 0.947,1.751 1.655,2.451 0.707,0.7 1.546,1.253 2.468,1.627 0.967,0.399 2.003,0.602 3.049,0.595 z m 0,-2.833 c -0.632,0.006 -1.259,-0.121 -1.84,-0.372 -0.554,-0.238 -1.055,-0.586 -1.472,-1.022 -0.423,-0.447 -0.756,-0.971 -0.979,-1.544 -0.477,-1.237 -0.477,-2.608 0,-3.845 0.225,-0.568 0.558,-1.089 0.979,-1.533 0.417,-0.436 0.918,-0.784 1.472,-1.022 0.581,-0.251 1.208,-0.378 1.84,-0.372 0.636,-0.005 1.266,0.122 1.85,0.372 0.559,0.237 1.064,0.585 1.484,1.022 0.421,0.444 0.752,0.965 0.978,1.533 0.477,1.237 0.477,2.608 0,3.845 -0.224,0.572 -0.556,1.097 -0.978,1.544 -0.42,0.437 -0.925,0.785 -1.484,1.022 -0.584,0.25 -1.214,0.376 -1.85,0.37 z m 38.009,2.599 v -9.971 l 7.509,9.971 h 2.692 v -14.906 h -2.86 v 9.647 l -7.32,-9.647 h -2.903 v 14.906 z"
     fill="#ffffff"
     id="path2" />
  <path
     d="m 152.373,123.307 c 1.68,0.003 3.308,-0.577 4.609,-1.641 1.3,-1.064 2.19,-2.546 2.519,-4.194 0.329,-1.647 0.077,-3.358 -0.715,-4.839 -0.791,-1.482 -2.072,-2.644 -3.625,-3.286 -1.552,-0.643 -3.279,-0.727 -4.886,-0.239 -1.608,0.489 -2.996,1.52 -3.927,2.918 -0.932,1.398 -1.35,3.076 -1.183,4.747 0.167,1.672 0.909,3.234 2.1,4.419 1.355,1.354 3.192,2.114 5.108,2.115 z m -6.222,-7.237 c -0.003,-0.817 0.156,-1.626 0.469,-2.38 0.313,-0.754 0.774,-1.438 1.355,-2.011 0.868,-0.869 1.975,-1.461 3.18,-1.701 1.206,-0.239 2.455,-0.116 3.59,0.354 1.135,0.47 2.105,1.266 2.788,2.288 0.682,1.022 1.047,2.223 1.047,3.451 0,1.229 -0.365,2.43 -1.047,3.452 -0.683,1.021 -1.653,1.818 -2.788,2.288 -1.135,0.47 -2.384,0.593 -3.59,0.353 -1.205,-0.239 -2.312,-0.831 -3.18,-1.7 -0.582,-0.574 -1.043,-1.258 -1.357,-2.013 -0.313,-0.754 -0.471,-1.564 -0.467,-2.381 z"
     fill="#ffffff"
     id="path4" />
  <path
     d="m 150.515,116.68 v 3.413 h -1.048 v -8.017 h 2.977 c 1.122,0.013 1.779,0.013 2.402,0.484 0.283,0.217 0.509,0.5 0.658,0.823 0.15,0.324 0.218,0.679 0.2,1.035 0.03,0.543 -0.153,1.076 -0.51,1.486 -0.357,0.41 -0.86,0.665 -1.402,0.71 l 2.256,3.475 h -1.267 l -2.196,-3.412 h -2.07 z m 0,-0.885 h 2.128 c 0.327,0.013 0.655,-0.013 0.976,-0.08 0.298,-0.053 0.565,-0.215 0.752,-0.454 0.186,-0.238 0.277,-0.537 0.256,-0.839 0.01,-0.211 -0.028,-0.422 -0.11,-0.616 -0.083,-0.194 -0.209,-0.367 -0.368,-0.505 -0.464,-0.297 -1.019,-0.415 -1.564,-0.335 h -2.07 v 2.832 z"
     fill="#ffffff"
     id="path6" />
  <path
     d="m 164.194,0.91 h 28.241 c 15.53,0 22.446,5.733 22.446,21.385 v 11.5267 c 0,15.0453 -4.914,22.1736 -20.444,22.1736 h -30.243 z m 14.864,42.315 h 13.013 c 5.49,0 7.492,-3.6097 7.492,-9.4033 V 22.295 c 0,-7.1283 -2.305,-8.5843 -7.492,-8.5843 h -13.013 z m 54.691,3.3063 -2.761,9.464 h -15.47 L 232.262,0.91 h 22.599 l 16.926,55.0853 H 256.62 l -2.912,-9.464 z m 10.101,-34.58 h -0.152 l -6.764,23.842 h 13.832 z m 52.567,44.044 H 281.554 V 13.7107 H 264.355 V 0.91 h 50.02 v 12.7703 h -17.958 z m 28.665,-9.464 -2.76,9.464 h -15.47 L 323.596,0.91 h 22.598 l 16.957,55.0853 h -15.167 l -2.912,-9.464 z m 10.101,-34.58 h -0.151 l -6.765,23.8724 h 13.832 z m -155.246,78.533 h 25.753 v 10.2227 h -25.753 v 10.738 h 27.846 v 12.012 H 165.074 V 68.3713 h 42.163 v 12.0424 h -27.3 z m 50.05,23.5087 -2.76,9.464 h -15.47 l 16.714,-55.0857 h 22.598 l 16.956,55.0857 h -15.166 l -2.912,-9.464 z m 10.101,-34.5803 h -0.151 l -6.765,23.8723 h 13.832 z m 56.693,10.556 c 17.199,1.183 21.476,3.2456 21.476,15.8643 0,9.1 0.395,18.079 -25.176,18.079 -14.803,0 -24.661,-0.304 -24.661,-18.352 h 14.893 c 0,5.733 2.184,6.309 9.768,6.309 7.28,0 9.676,-0.455 9.676,-5.065 0,-4.763 -0.849,-4.702 -8.129,-5.157 l -3.398,-0.212 c -14.347,-0.941 -22.719,-0.88 -22.719,-16.6837 0,-15.8036 9.373,-16.8046 24.57,-16.8046 12.709,0 23.569,0.2123 23.569,15.4093 v 2.275 h -14.894 c 0,-5.642 -2.487,-5.642 -8.675,-5.642 -8.372,0 -9.07,1.6077 -9.07,4.7017 0,4.3983 2.245,4.55 6.37,4.8533 z m 52.204,33.4883 H 334.122 V 81.172 H 319.865 V 68.4017 H 364 V 81.172 H 348.985 Z M 92.3347,61.0003 h 49.3223 v -36.4 c -3.246,-0.8796 -6.674,-1.365 -10.192,-1.365 -21.143,0 -38.4023,16.835 -39.1303,37.765 z m 39.1303,40.5857 c 3.518,0 6.946,-0.485 10.192,-1.365 V 63.8213 H 92.3347 c 0.728,20.93 17.9873,37.7647 39.1303,37.7647 z M 131.465,0 C 102.132,0 77.5017,20.2627 70.8283,47.5323 64.155,20.2627 39.5547,0 10.192,0 6.734,0 3.30633,0.303333 0,0.849333 V 21.7187 c 3.276,-0.819 6.67333,-1.2437 10.192,-1.2437 23.1443,0 41.9813,18.837 41.9813,41.9813 0,23.1444 -18.837,41.9207 -41.9813,41.9207 -3.51867,0 -6.94633,-0.425 -10.192,-1.244 v 20.87 c 3.30633,0.546 6.734,0.849 10.192,0.849 29.3323,0 53.963,-20.263 60.6363,-47.5323 6.6734,27.3003 31.2737,47.5323 60.6367,47.5323 3.488,0 6.885,-0.303 10.192,-0.849 v -20.87 c -3.276,0.819 -6.674,1.244 -10.192,1.244 -23.145,0 -41.9817,-18.837 -41.9817,-41.9813 0,-23.1444 18.8367,-41.951 41.9817,-41.951 3.518,0 6.946,0.4246 10.192,1.2436 V 0.849333 C 138.35,0.303333 134.923,0 131.465,0 Z M 49.3827,62.426 C 49.3827,40.8287 31.8197,23.2657 10.2223,23.2657 6.67333,23.2353 3.24567,23.7207 0,24.6003 v 75.6207 c 3.24567,0.88 6.67333,1.365 10.192,1.365 21.5973,0 39.1907,-17.5627 39.1907,-39.16 z"
     fill="#ffffff"
     id="path8" />
</svg>

<svg width="364" height="159" viewBox="0 0 364 159" fill="none" xmlns="http://www.w3.org/2000/svg">
<path d="M7.84564 158.719C9.00478 158.718 10.1496 158.463 11.2005 157.974C12.2338 157.518 13.1507 156.834 13.8825 155.973V155.973L11.8843 153.971C11.3939 154.561 10.7848 155.041 10.0966 155.381C9.4215 155.708 8.68032 155.875 7.93024 155.87C7.29728 155.877 6.66925 155.758 6.08251 155.521C5.49576 155.283 4.96196 154.932 4.51198 154.486C4.07868 154.051 3.73634 153.533 3.50483 152.964C3.25663 152.359 3.13165 151.711 3.13722 151.058C3.13046 150.398 3.25189 149.744 3.49476 149.13C3.72147 148.56 4.05743 148.039 4.48378 147.597C4.91134 147.159 5.42272 146.812 5.98745 146.575C6.57595 146.325 7.20934 146.199 7.84866 146.203C8.61968 146.2 9.38076 146.376 10.0714 146.719C10.7853 147.078 11.4105 147.591 11.9014 148.221V148.221L13.9631 146.155C13.2382 145.275 12.3158 144.578 11.271 144.122C10.1971 143.625 9.02861 143.367 7.84564 143.365C6.78903 143.358 5.74151 143.561 4.76377 143.962C3.83744 144.337 2.99164 144.887 2.27208 145.581C1.56185 146.276 0.996943 147.104 0.610288 148.019C0.209463 148.979 0.00222762 150.008 0.000499183 151.047C-0.00122925 152.087 0.202583 153.117 0.600217 154.077C0.982294 154.989 1.54364 155.815 2.25093 156.506C2.97083 157.199 3.81698 157.749 4.74363 158.124C5.72798 158.526 6.78241 158.729 7.84564 158.719V158.719ZM47.7056 158.742C48.7586 158.749 49.8027 158.547 50.7763 158.145C51.6986 157.771 52.5377 157.218 53.2454 156.518C53.953 155.818 54.5152 154.985 54.8996 154.067C55.3021 153.114 55.5094 152.089 55.5094 151.054C55.5094 150.019 55.3021 148.994 54.8996 148.041C54.5153 147.122 53.9531 146.289 53.2454 145.59C52.5378 144.89 51.6986 144.337 50.7763 143.963C48.8132 143.168 46.618 143.168 44.6549 143.963C43.7326 144.337 42.8935 144.89 42.1858 145.59C41.4781 146.289 40.916 147.122 40.5316 148.041C40.1294 148.994 39.9222 150.019 39.9222 151.054C39.9222 152.089 40.1294 153.114 40.5316 154.067C40.916 154.985 41.4782 155.818 42.1859 156.518C42.8935 157.218 43.7326 157.771 44.6549 158.145C45.6223 158.545 46.6598 158.747 47.7066 158.741L47.7056 158.742ZM47.7056 155.909C47.0875 155.915 46.475 155.794 45.9054 155.554C45.3358 155.314 44.8212 154.96 44.393 154.515C43.9707 154.068 43.6387 153.543 43.4151 152.971C42.9381 151.734 42.9381 150.363 43.4151 149.126C43.6406 148.558 43.9725 148.037 44.393 147.593C44.8212 147.148 45.3358 146.794 45.9054 146.554C46.475 146.314 47.0875 146.193 47.7056 146.199C48.3417 146.194 48.972 146.321 49.5567 146.571C50.1151 146.808 50.6195 147.156 51.0392 147.593C51.4598 148.037 51.7917 148.558 52.0172 149.126C52.4939 150.363 52.4939 151.734 52.0172 152.971C51.7936 153.543 51.4615 154.068 51.0392 154.515C50.6194 154.952 50.115 155.3 49.5567 155.537C48.9722 155.787 48.3423 155.913 47.7066 155.908L47.7056 155.909ZM93.9387 158.508V155.783H85.8815V143.6H82.8339V158.506L93.9387 158.508ZM132.391 158.508V155.783H124.333V143.6H121.284V158.506L132.391 158.508ZM171.136 158.508V155.825H162.785V152.289H168.234V149.69H162.785V146.286H171.052V143.603H159.734V158.509L171.136 158.508ZM204.96 158.72C206.119 158.719 207.264 158.464 208.314 157.975C209.348 157.519 210.265 156.834 210.996 155.974V155.974L208.997 153.973C208.507 154.563 207.898 155.043 207.21 155.383C206.535 155.71 205.793 155.877 205.043 155.872C204.41 155.879 203.783 155.76 203.196 155.523C202.609 155.285 202.076 154.934 201.626 154.488C201.193 154.053 200.85 153.535 200.619 152.966C200.37 152.361 200.245 151.713 200.25 151.06C200.244 150.4 200.365 149.746 200.609 149.132C200.835 148.562 201.17 148.041 201.597 147.599C202.024 147.161 202.536 146.813 203.1 146.577C203.689 146.327 204.322 146.2 204.962 146.205C205.735 146.202 206.499 146.38 207.191 146.725C207.905 147.084 208.531 147.597 209.021 148.227V148.227L211.083 146.161C210.358 145.281 209.436 144.584 208.391 144.128C207.317 143.632 206.149 143.374 204.967 143.371C203.91 143.364 202.863 143.567 201.885 143.968C200.958 144.343 200.112 144.892 199.392 145.586C198.682 146.28 198.116 147.109 197.729 148.024C197.329 148.984 197.121 150.013 197.12 151.052C197.118 152.092 197.322 153.122 197.719 154.083C198.101 154.994 198.663 155.82 199.37 156.511C200.09 157.204 200.936 157.754 201.863 158.129C202.846 158.529 203.898 158.729 204.96 158.719V158.72ZM245.304 158.508V146.325H250.246V143.599H237.289V146.325H242.253V158.506L245.304 158.508ZM280.242 158.508V143.602H277.192V158.508H280.242ZM315.37 158.743C316.423 158.75 317.467 158.548 318.441 158.146C319.363 157.772 320.202 157.219 320.91 156.519C321.618 155.819 322.18 154.986 322.564 154.068C322.967 153.115 323.174 152.09 323.174 151.055C323.174 150.02 322.967 148.995 322.564 148.042C322.18 147.123 321.618 146.29 320.91 145.591C320.203 144.891 319.363 144.338 318.441 143.964C316.478 143.169 314.284 143.169 312.321 143.964C311.399 144.338 310.56 144.891 309.853 145.591C309.145 146.291 308.583 147.124 308.198 148.042C307.796 148.995 307.588 150.02 307.588 151.055C307.588 152.09 307.796 153.115 308.198 154.068C308.583 154.986 309.145 155.819 309.853 156.519C310.56 157.219 311.399 157.772 312.321 158.146C313.288 158.545 314.324 158.748 315.37 158.741V158.743ZM315.37 155.91C314.738 155.916 314.111 155.789 313.53 155.538C312.976 155.3 312.475 154.952 312.058 154.516C311.635 154.069 311.302 153.545 311.079 152.972C310.602 151.735 310.602 150.364 311.079 149.127C311.304 148.559 311.637 148.038 312.058 147.594C312.475 147.158 312.976 146.81 313.53 146.572C314.111 146.321 314.738 146.194 315.37 146.2C316.006 146.195 316.636 146.322 317.22 146.572C317.779 146.809 318.284 147.157 318.704 147.594C319.125 148.038 319.456 148.559 319.682 149.127C320.159 150.364 320.159 151.735 319.682 152.972C319.458 153.544 319.126 154.069 318.704 154.516C318.284 154.953 317.779 155.301 317.22 155.538C316.636 155.788 316.006 155.914 315.37 155.908V155.91ZM353.379 158.509V148.538L360.888 158.509H363.58V143.603H360.72V153.25L353.4 143.603H350.497V158.509H353.379Z" fill="white"/>
<path d="M152.373 123.307C154.053 123.31 155.681 122.73 156.982 121.666C158.282 120.602 159.172 119.12 159.501 117.472C159.83 115.825 159.578 114.114 158.786 112.633C157.995 111.151 156.714 109.989 155.161 109.347C153.609 108.704 151.882 108.62 150.275 109.108C148.667 109.597 147.279 110.628 146.348 112.026C145.416 113.424 144.998 115.102 145.165 116.773C145.332 118.445 146.074 120.007 147.265 121.192C148.62 122.546 150.457 123.306 152.373 123.307V123.307ZM146.151 116.07C146.148 115.253 146.307 114.444 146.62 113.69C146.933 112.936 147.394 112.252 147.975 111.679C148.843 110.81 149.95 110.218 151.155 109.978C152.361 109.739 153.61 109.862 154.745 110.332C155.88 110.802 156.85 111.598 157.533 112.62C158.215 113.642 158.58 114.843 158.58 116.071C158.58 117.3 158.215 118.501 157.533 119.523C156.85 120.544 155.88 121.341 154.745 121.811C153.61 122.281 152.361 122.404 151.155 122.164C149.95 121.925 148.843 121.333 147.975 120.464C147.393 119.89 146.932 119.206 146.618 118.451C146.305 117.697 146.147 116.887 146.151 116.07V116.07Z" fill="white"/>
<path d="M150.515 116.68V120.093H149.467V112.076H152.444C153.566 112.089 154.223 112.089 154.846 112.56C155.129 112.777 155.355 113.06 155.504 113.383C155.654 113.707 155.722 114.062 155.704 114.418C155.734 114.961 155.551 115.494 155.194 115.904C154.837 116.314 154.334 116.569 153.792 116.614L156.048 120.089H154.781L152.585 116.677H150.515V116.68ZM150.515 115.795H152.643C152.97 115.808 153.298 115.782 153.619 115.715C153.917 115.662 154.184 115.5 154.371 115.261C154.557 115.023 154.648 114.724 154.627 114.422C154.637 114.211 154.599 114 154.517 113.806C154.434 113.612 154.308 113.439 154.149 113.301C153.685 113.004 153.13 112.886 152.585 112.966H150.515V115.798V115.795Z" fill="white"/>
<path d="M164.194 0.91H192.435C207.965 0.91 214.881 6.643 214.881 22.295V33.8217C214.881 48.867 209.967 55.9953 194.437 55.9953H164.194V0.91ZM179.058 43.225H192.071C197.561 43.225 199.563 39.6153 199.563 33.8217V22.295C199.563 15.1667 197.258 13.7107 192.071 13.7107H179.058V43.225ZM233.749 46.5313L230.988 55.9953H215.518L232.262 0.91H254.861L271.787 55.9953H256.62L253.708 46.5313H233.749ZM243.85 11.9513H243.698L236.934 35.7933H250.766L243.85 11.9513ZM296.417 55.9953H281.554V13.7107H264.355V0.91H314.375V13.6803H296.417V55.9953ZM325.082 46.5313L322.322 55.9953H306.852L323.596 0.91H346.194L363.151 55.9953H347.984L345.072 46.5313H325.082ZM335.183 11.9513H335.032L328.267 35.8237H342.099L335.183 11.9513ZM179.937 90.4843H205.69V100.707H179.937V111.445H207.783V123.457H165.074V68.3713H207.237V80.4137H179.937V90.4843ZM229.987 113.993L227.227 123.457H211.757L228.471 68.3713H251.069L268.025 123.457H252.859L249.947 113.993H229.987ZM240.088 79.4127H239.937L233.172 103.285H247.004L240.088 79.4127ZM296.781 89.9687C313.98 91.1517 318.257 93.2143 318.257 105.833C318.257 114.933 318.652 123.912 293.081 123.912C278.278 123.912 268.42 123.608 268.42 105.56H283.313C283.313 111.293 285.497 111.869 293.081 111.869C300.361 111.869 302.757 111.414 302.757 106.804C302.757 102.041 301.908 102.102 294.628 101.647L291.23 101.435C276.883 100.494 268.511 100.555 268.511 84.7513C268.511 68.9477 277.884 67.9467 293.081 67.9467C305.79 67.9467 316.65 68.159 316.65 83.356V85.631H301.756C301.756 79.989 299.269 79.989 293.081 79.989C284.709 79.989 284.011 81.5967 284.011 84.6907C284.011 89.089 286.256 89.2407 290.381 89.544L296.781 89.9687ZM348.985 123.457H334.122V81.172H319.865V68.4017H364V81.172H348.985V123.457ZM92.3347 61.0003H141.657V24.6003C138.411 23.7207 134.983 23.2353 131.465 23.2353C110.322 23.2353 93.0627 40.0703 92.3347 61.0003ZM131.465 101.586C134.983 101.586 138.411 101.101 141.657 100.221V63.8213H92.3347C93.0627 84.7513 110.322 101.586 131.465 101.586ZM131.465 0C102.132 0 77.5017 20.2627 70.8283 47.5323C64.155 20.2627 39.5547 0 10.192 0C6.734 0 3.30633 0.303333 0 0.849333V21.7187C3.276 20.8997 6.67333 20.475 10.192 20.475C33.3363 20.475 52.1733 39.312 52.1733 62.4563C52.1733 85.6007 33.3363 104.377 10.192 104.377C6.67333 104.377 3.24567 103.952 0 103.133V124.003C3.30633 124.549 6.734 124.852 10.192 124.852C39.5243 124.852 64.155 104.589 70.8283 77.3197C77.5017 104.62 102.102 124.852 131.465 124.852C134.953 124.852 138.35 124.549 141.657 124.003V103.133C138.381 103.952 134.983 104.377 131.465 104.377C108.32 104.377 89.4833 85.54 89.4833 62.3957C89.4833 39.2513 108.32 20.4447 131.465 20.4447C134.983 20.4447 138.411 20.8693 141.657 21.6883V0.849333C138.35 0.303333 134.923 0 131.465 0ZM49.3827 62.426C49.3827 40.8287 31.8197 23.2657 10.2223 23.2657C6.67333 23.2353 3.24567 23.7207 0 24.6003V100.221C3.24567 101.101 6.67333 101.586 10.192 101.586C31.7893 101.586 49.3827 84.0233 49.3827 62.426Z" fill="white"/>
</svg>
